categories/16/preferences-desktop-locale.svg

<?xml version="1.0" encoding="UTF-8" standalone="no"?>
<svg
   xmlns:dc="http://purl.org/dc/elements/1.1/"
   xmlns:cc="http://creativecommons.org/ns#"
   xmlns:rdf="http://www.w3.org/1999/02/22-rdf-syntax-ns#"
   xmlns:svg="http://www.w3.org/2000/svg"
   xmlns="http://www.w3.org/2000/svg"
   xmlns:xlink="http://www.w3.org/1999/xlink"
   version="1.1"
   width="16"
   height="16"
   id="svg4017">
  <defs
     id="defs4019">
    <linearGradient
       x1="6.0052142"
       y1="12.517409"
       x2="14.609042"
       y2="12.517409"
       id="linearGradient4019"
       xlink:href="#linearGradient4120"
       gradientUnits="userSpaceOnUse"
       gradientTransform="matrix(0.69402363,0,0,0.62529439,-0.16822101,0.5980265)"
       spreadMethod="reflect" />
    <linearGradient
       id="linearGradient4120">
      <stop
         id="stop4122"
         style="stop-color:#ffffff;stop-opacity:1"
         offset="0" />
      <stop
         id="stop4124"
         style="stop-color:#ffffff;stop-opacity:0.23529412"
         offset="1" />
    </linearGradient>
    <linearGradient
       x1="14.609042"
       y1="10.208309"
       x2="5.9908566"
       y2="10.208309"
       id="linearGradient3917"
       xlink:href="#linearGradient3707-319-631-407-324-3-8-3-8"
       gradientUnits="userSpaceOnUse"
       gradientTransform="matrix(0.69402363,0,0,0.62529439,-0.168221,0.598027)"
       spreadMethod="reflect" />
    <linearGradient
       id="linearGradient3707-319-631-407-324-3-8-3-8">
      <stop
         id="stop3760-7-3-6-1"
         style="stop-color:#185f9a;stop-opacity:1"
         offset="0" />
      <stop
         id="stop3762-8-4-4-0"
         style="stop-color:#599ec9;stop-opacity:1"
         offset="1" />
    </linearGradient>
    <linearGradient
       x1="14.609042"
       y1="10.208309"
       x2="5.9908566"
       y2="10.208309"
       id="linearGradient3951"
       xlink:href="#linearGradient3707-319-631-407-324-3-8-3-8-5"
       gradientUnits="userSpaceOnUse"
       gradientTransform="matrix(0.69402363,0,0,0.62529439,-0.168221,0.598027)"
       spreadMethod="reflect" />
    <linearGradient
       id="linearGradient3707-319-631-407-324-3-8-3-8-5">
      <stop
         id="stop3760-7-3-6-1-9"
         style="stop-color:#185f9a;stop-opacity:1"
         offset="0" />
      <stop
         id="stop3762-8-4-4-0-5"
         style="stop-color:#599ec9;stop-opacity:1"
         offset="1" />
    </linearGradient>
    <linearGradient
       x1="23.571318"
       y1="7.9912324"
       x2="23.571318"
       y2="37.999088"
       id="linearGradient3877"
       xlink:href="#linearGradient3875"
       gradientUnits="userSpaceOnUse"
       gradientTransform="matrix(0.33330061,0,0,0.33324608,0.00138124,0.33695311)" />
    <linearGradient
       id="linearGradient3875">
      <stop
         id="stop3877"
         style="stop-color:#ffffff;stop-opacity:1"
         offset="0" />
      <stop
         id="stop3879"
         style="stop-color:#ffffff;stop-opacity:0.23529412"
         offset="0.13099068" />
      <stop
         id="stop3881"
         style="stop-color:#ffffff;stop-opacity:0.15686275"
         offset="0.90155029" />
      <stop
         id="stop3883"
         style="stop-color:#ffffff;stop-opacity:0.39215687"
         offset="1" />
    </linearGradient>
    <linearGradient
       id="linearGradient2867-449-88-871-390-598-476-591-434-148-57-177-3-8">
      <stop
         id="stop3750-8-9"
         style="stop-color:#90dbec;stop-opacity:1"
         offset="0" />
      <stop
         id="stop3752-3-2"
         style="stop-color:#55c1ec;stop-opacity:1"
         offset="0.26238" />
      <stop
         id="stop3754-7-2"
         style="stop-color:#3689e6;stop-opacity:1"
         offset="0.704952" />
      <stop
         id="stop3756-9-3"
         style="stop-color:#2b63a0;stop-opacity:1"
         offset="1" />
    </linearGradient>
    <linearGradient
       id="linearGradient3707-319-631-407-324-3-8">
      <stop
         id="stop3760-7-3"
         style="stop-color:#185f9a;stop-opacity:1"
         offset="0" />
      <stop
         id="stop3762-8-4"
         style="stop-color:#599ec9;stop-opacity:1"
         offset="1" />
    </linearGradient>
    <linearGradient
       x1="0.36465192"
       y1="19.599176"
       x2="28.05953"
       y2="19.599176"
       id="linearGradient4013"
       xlink:href="#linearGradient2867-449-88-871-390-598-476-591-434-148-57-177-3-8"
       gradientUnits="userSpaceOnUse"
       gradientTransform="matrix(0.4420619,0,0,0.44502114,-2.4036487,-0.3871894)"
       spreadMethod="reflect" />
    <linearGradient
       x1="30"
       y1="30"
       x2="-11"
       y2="30"
       id="linearGradient4015"
       xlink:href="#linearGradient3707-319-631-407-324-3-8"
       gradientUnits="userSpaceOnUse"
       gradientTransform="matrix(0.33330061,0,0,0.33324608,0.00138124,0.336953)"
       spreadMethod="reflect" />
  </defs>
  <metadata
     id="metadata4022">
    <rdf:RDF>
      <cc:Work
         rdf:about="">
        <dc:format>image/svg+xml</dc:format>
        <dc:type
           rdf:resource="http://purl.org/dc/dcmitype/StillImage" />
        <dc:title />
      </cc:Work>
    </rdf:RDF>
  </metadata>
  <g
     id="layer1">
    <path
       d="M 0.50133224,3.5937668 C 0.48660224,3.0694881 2.7377191,2.4240984 5.0441301,2.507291 c 2.306325,0.083189 2.922071,0.8854398 5.5353859,0.9954998 2.420589,0.101943 4.935073,-1.0663616 4.920343,-0.5321942 l 0,10.3399594 c 0.02083,0.706056 -2.280784,1.197041 -4.894717,1.189355 -2.6139209,-0.0077 -3.0994439,-0.954906 -5.5610119,-0.999738 -2.460171,-0.04481 -4.60529186,1.312157 -4.54279786,0.325581 l 0,-10.2319872 z"
       id="path4319-4"
       style="fill:url(#linearGradient4013);fill-opacity:1;fill-rule:evenodd;stroke:url(#linearGradient4015);stroke-width:1;stroke-linecap:butt;stroke-linejoin:round;stroke-miterlimit:4;stroke-opacity:1;stroke-dasharray:none" />
    <path
       d="m 5.1875,3.46875 c -1.0379796,-0.045285 -2.0793519,0.08471 -2.84375,0.25 -0.3821991,0.082645 -0.7003905,0.1736631 -0.875,0.25 l 0,9.15625 c 0.1542869,-0.03439 0.2556751,-0.05572 0.5,-0.125 0.7979077,-0.22624 1.9571539,-0.558802 3.25,-0.53125 1.2605547,0.02687 2.1017996,0.337554 2.8125,0.59375 0.7107004,0.256196 1.3091251,0.464509 2.46875,0.46875 1.203793,0.0044 2.349667,-0.131477 3.15625,-0.28125 0.390151,-0.07245 0.684977,-0.151565 0.875,-0.21875 l 0,-9.0625 c -0.193953,0.043959 -0.351439,0.065271 -0.625,0.125 -0.878836,0.1918846 -2.126331,0.4219591 -3.46875,0.375 C 9.1261461,4.4228757 8.2646523,4.166619 7.53125,3.9375 6.7978477,3.708381 6.2093162,3.5133291 5.1875,3.46875 z"
       id="path3875"
       style="opacity:0.4;fill:none;stroke:url(#linearGradient3877);stroke-width:1.00000191px;stroke-linecap:butt;stroke-linejoin:miter;stroke-opacity:1" />
    <path
       d="M 7.71875,3.03125 C 7.0096741,3.127821 6.4308501,3.5234905 5.84375,3.875 5.8087224,3.8584602 5.758324,3.8599002 5.71875,3.84375 5.6525637,3.8160384 5.5976685,3.7366762 5.53125,3.71875 l 0,0.03125 C 5.0811733,3.6102034 4.5183642,3.5254134 3.9375,3.8125 a 1.9728021,1.9728021 0 0 0 -0.375,0.25 C 2.3886328,5.0348169 2.2197475,6.2915374 2.09375,6.84375 A 1.9728021,1.9728021 0 0 0 2.09375,7 C 1.980415,7.7936393 2.047249,8.6224778 2.28125,9.40625 l -0.03125,0 c 0.007,0.024726 0.023949,0.038024 0.03125,0.0625 0.2585856,0.866897 0.6882418,1.593312 1.15625,2.1875 a 1.9728021,1.9728021 0 0 0 0.15625,0.15625 c 0.4851087,0.504092 1.1660941,1.173083 2.21875,1.5625 0.044292,0.01946 0.1092221,0.04275 0.15625,0.0625 0.5454893,0.229066 1.2716378,0.361237 2.15625,0.25 0.041481,0.02138 0.083543,-0.01878 0.125,0 0.418087,0.189446 0.8305898,0.179551 1.25,0.125 l 0,0.125 c 0.1187619,-0.0067 0.2530444,-0.08149 0.375,-0.09375 0.03132,-0.009 0.062391,0.01017 0.09375,0 l 0,-0.03125 c 0.741222,-0.08376 1.489866,-0.188675 2.25,-0.625 a 1.9728021,1.9728021 0 0 0 0.0625,-0.03125 c 0.942239,-0.5871 1.669695,-1.40719 2.125,-2.34375 A 1.9728021,1.9728021 0 0 0 14.4375,10.71875 C 14.773595,9.9247126 14.909262,9.1231096 14.96875,8.4375 a 1.9728021,1.9728021 0 0 0 0,-0.0625 c 0.04739,-0.9696789 -0.18554,-1.8490314 -0.5,-2.59375 A 1.9728021,1.9728021 0 0 0 14.375,5.59375 c 0.03686,0.064942 -0.03912,-0.1462268 -0.28125,-0.5 C 13.851615,4.7399768 13.222706,4.1088377 12.375,4 A 1.9728021,1.9728021 0 0 0 11.34375,4.15625 C 11.24982,4.0828294 11.198056,4.0067334 11.09375,3.9375 11.082828,3.9301935 11.073505,3.9135148 11.0625,3.90625 10.267854,3.3816532 9.2579862,3.0025626 8.0625,3.0625 8.0388914,3.0636837 8.0237529,3.0296943 8,3.03125 a 1.9728021,1.9728021 0 0 0 -0.09375,0 1.9728021,1.9728021 0 0 0 -0.1875,0 z M 7.875,8.09375 7.71875,8.3125 C 7.72141,8.258701 7.774144,8.215935 7.78125,8.15625 L 7.875,8.09375 z"
       id="path3915-6"
       style="font-size:medium;font-style:normal;font-variant:normal;font-weight:normal;font-stretch:normal;text-indent:0;text-align:start;text-decoration:none;line-height:normal;letter-spacing:normal;word-spacing:normal;text-transform:none;direction:ltr;block-progression:tb;writing-mode:lr-tb;text-anchor:start;opacity:0.2;color:#000000;fill:url(#linearGradient3951);fill-opacity:1;stroke:none;stroke-width:2.03124976;marker:none;visibility:visible;display:inline;overflow:visible;enable-background:accumulate;font-family:Andale Mono;-inkscape-font-specification:Andale Mono" />
    <path
       d="M 7.875,4.0625 C 7.0837974,4.1702561 6.3676365,4.5086789 5.78125,5 5.737854,5.0360066 5.7285964,5.0874859 5.6875,5.125 5.6069902,5.0464016 5.5632231,4.9618132 5.46875,4.90625 L 5.53125,4.8125 C 5.5030929,4.7944066 5.4134853,4.8311653 5.375,4.8125 5.3330272,4.7943785 5.3240588,4.730304 5.28125,4.71875 L 5.25,4.8125 C 5.0034953,4.7180511 4.7457875,4.5821868 4.40625,4.75 A 0.94844425,0.94844425 0 0 0 4.21875,4.875 C 3.3897094,5.5616962 3.2239743,6.4917627 3.09375,7.0625 a 0.94844425,0.94844425 0 0 0 0,0.09375 C 2.9997332,7.8146115 3.0541308,8.4794126 3.25,9.125 c 0.00265,0.00935 -0.0027,0.021937 0,0.03125 0.2076355,0.7151306 0.5797133,1.341399 1,1.875 a 0.94844425,0.94844425 0 0 0 0.0625,0.0625 c 0.4537953,0.471553 1.0812274,1.010218 1.90625,1.3125 l 0,0.03125 c 0.016127,0.0071 0.046052,-0.0071 0.0625,0 0.015766,0.0054 0.015309,0.02605 0.03125,0.03125 l 0,-0.03125 c 0.531146,0.225773 1.1875419,0.443934 1.96875,0.25 A 0.94844425,0.94844425 0 0 0 8.5,12.625 c 0.04725,0.03522 0.045275,0.131271 0.09375,0.15625 0.274824,0.141618 0.559257,0.109281 0.84375,0.0625 l 0,0.0625 c 0.041434,-0.0023 0.083352,-0.0282 0.125,-0.03125 0.031416,-0.0081 0.06235,0.01018 0.09375,0 l 0,-0.03125 c 0.693521,-0.06039 1.399724,-0.182059 2.0625,-0.5625 a 0.94844425,0.94844425 0 0 0 0.03125,0 c 0.765981,-0.477275 1.347769,-1.174394 1.71875,-1.9375 A 0.94844425,0.94844425 0 0 0 13.5,10.3125 C 13.77869,9.6540832 13.883391,8.998618 13.9375,8.375 a 0.94844425,0.94844425 0 0 0 0,-0.0625 C 13.97513,7.5425703 13.801572,6.8276887 13.53125,6.1875 A 0.94844425,0.94844425 0 0 0 13.46875,6.09375 C 13.45495,6.069443 13.40794,5.8870126 13.25,5.65625 13.092058,5.4254874 12.735737,5.0936143 12.25,5.03125 A 0.94844425,0.94844425 0 0 0 11.6875,5.125 0.94844425,0.94844425 0 0 0 11.625,5.15625 0.94844425,0.94844425 0 0 0 11.46875,5.3125 l -0.03125,0.03125 0,0.03125 c -0.05775,0.047364 -0.106095,0.1003782 -0.15625,0.15625 -0.223097,-0.2635468 -0.420841,-0.5364683 -0.75,-0.75 C 9.86664,4.3366376 9.0027294,4.0068136 8.0625,4.0625 8.0411581,4.063764 8.0214377,4.0608279 8,4.0625 a 0.94844425,0.94844425 0 0 0 -0.03125,0 0.94844425,0.94844425 0 0 0 -0.09375,0 z"
       id="path3915"
       style="font-size:medium;font-style:normal;font-variant:normal;font-weight:normal;font-stretch:normal;text-indent:0;text-align:start;text-decoration:none;line-height:normal;letter-spacing:normal;word-spacing:normal;text-transform:none;direction:ltr;block-progression:tb;writing-mode:lr-tb;text-anchor:start;opacity:0.6;color:#000000;fill:url(#linearGradient3917);fill-opacity:1;stroke:none;stroke-width:2.03124976;marker:none;visibility:visible;display:inline;overflow:visible;enable-background:accumulate;font-family:Andale Mono;-inkscape-font-specification:Andale Mono" />
    <path
       d="M 8.0082448,5.0141682 C 7.4044353,5.0964027 6.8339021,5.3584184 6.38717,5.732726 5.9749191,6.0747792 5.6883146,6.5312536 5.5140974,7.007294 5.3683645,7.524928 5.3017765,8.0941255 5.5412064,8.5978838 5.6885983,8.9512322 5.8838263,9.2889229 6.1430564,9.5866329 6.1480264,9.7127011 5.9568441,9.74787 5.9695505,9.8797395 6.1600423,9.7377839 6.5104332,9.8013485 6.5985094,10.016523 c 0.6167184,0.418009 1.3610622,0.666464 2.1197266,0.784495 0.6484498,0.05042 1.337435,-0.0666 1.892597,-0.393686 0.570888,-0.327099 0.878452,-0.9127999 0.976979,-1.4998362 0.120961,-0.575751 -0.0066,-1.1722303 -0.274469,-1.6999835 C 10.990732,6.5978689 10.607886,5.9765407 9.9866654,5.5735428 9.4384048,5.2067661 8.7482712,4.9482591 8.0558583,5.0088062 l -0.047613,0.0054 z M 4.7983856,5.600382 C 4.2886171,6.0226244 4.173435,6.6929711 4.0392972,7.2808603 c -0.076277,0.5341369 -0.043802,1.0774466 0.117524,1.5959693 0.1604425,0.5665955 0.4623504,1.0942301 0.8367586,1.5695834 0.442891,0.460222 0.9425802,0.890612 1.5904978,1.102093 0.4462567,0.196097 0.9725272,0.369085 1.4675438,0.246198 C 8.2913267,11.570312 8.0233184,11.23824 7.7262978,11.208491 7.1180562,11.095654 6.5378722,10.856834 6.0467277,10.508806 5.5645619,10.12324 5.1643745,9.6307486 4.9285338,9.088398 4.7081217,8.5481832 4.6466249,7.9694319 4.7116326,7.3981033 4.7570047,6.9304746 4.9370457,6.4949755 5.1887739,6.0888934 5.2676112,5.9209689 5.2692968,5.6826298 5.0369563,5.6199217 4.9687835,5.5761147 4.8730096,5.5634998 4.7983856,5.600382 z M 8.3118802,5.659 C 8.9213315,5.7083753 9.5306274,5.9166723 9.9384981,6.3429156 10.222956,6.7444277 10.62005,7.0955845 10.740963,7.5739633 10.372263,7.1831548 10.003563,6.7923454 9.6348628,6.4015371 9.6999268,6.6685896 9.7649922,6.9356422 9.8300569,7.2026947 9.4029749,6.7653516 8.8961051,6.2019098 8.1673241,6.3213716 7.6278179,6.3952234 7.1115171,6.7085834 6.9238329,7.1831583 6.890617,7.4801101 6.5831327,7.6336851 6.3165623,7.749831 6.7011709,7.81829 6.8616138,8.1682473 6.9455212,8.4728274 6.8127669,8.3387768 6.7490742,8.5893081 6.7069506,8.6682325 6.6346564,8.7854754 6.5623623,8.9027174 6.4900681,9.0199604 6.1689333,8.5627237 6.0254576,7.9945643 6.0996799,7.4567248 6.2301038,6.8732906 6.5826222,6.3233995 7.1407153,5.9911903 7.4789803,5.7778284 7.8920647,5.6271032 8.3118802,5.6590033 z m 3.7737528,0.332187 c -0.400596,0.1852319 -0.211811,0.6588854 -0.06506,0.9379423 0.217961,0.5596196 0.385309,1.1552615 0.305863,1.7520979 -0.03899,0.5057917 -0.189832,1.0146364 -0.479369,1.4525348 -0.336789,0.405807 -0.703575,0.83718 -1.236581,1.035833 -0.513576,0.288372 -1.1439497,0.180569 -1.6952842,0.340609 -0.1069511,-1.58e-4 -0.014151,0.132602 -0.03942,0.186793 -0.0052,0.238578 0.2636477,0.355434 0.4947965,0.280485 0.6627277,-0.03733 1.3257807,-0.177476 1.8880327,-0.500215 0.602785,-0.375589 1.072888,-0.929583 1.365794,-1.5320897 0.22554,-0.5328469 0.323012,-1.1015371 0.372141,-1.6677575 C 13.025136,7.6924362 12.873567,7.1129932 12.644112,6.5695879 12.522711,6.3557032 12.430199,6.0103168 12.129011,5.971647 l -0.04338,0.019536 z M 8.5504508,6.9486686 C 8.9613378,7.0589528 9.3255524,7.3855279 9.3312274,7.7889078 9.4482585,8.0314512 9.6789506,8.3243916 9.4479942,8.5750648 9.1722529,9.0449104 8.425757,9.0104066 8.0328098,8.6829834 7.9248025,8.6332829 7.8375337,8.5627865 7.7696742,8.4728274 8.0213064,8.5566146 7.9623227,8.233435 7.9648684,8.1044936 c 0,-0.1182203 0,-0.2364414 0,-0.3546626 -0.1662762,0 -0.3325533,0 -0.4988295,0 C 7.6042128,7.3269133 7.9847348,6.82244 8.5504508,6.9486724 z m 2.3206422,1.074725 c 0.122763,0.5097927 0.0975,1.1040301 -0.281948,1.5241557 0,-0.2605407 0,-0.5210789 0,-0.7816185 C 10.473474,8.648688 10.357804,8.531445 10.242133,8.4142031 10.408327,8.2114437 10.672546,8.1017238 10.849404,7.9061507 l 0.02086,0.1127531 8.34e-4,0.00453 z M 8.0733096,9.4107658 C 8.400584,9.5259893 8.74435,9.5821424 9.0926568,9.5475493 9.3818336,9.7168994 9.6710096,9.8862504 9.9601863,10.055602 9.3462003,10.196292 8.6878605,10.289103 8.0842051,10.055617 7.695996,9.9275005 7.3499155,9.717364 7.0105859,9.5084683 7.2203913,9.3218513 7.6078113,9.1869002 7.8798303,9.311154 l 0.1101562,0.056717 0.083323,0.042892 z"
       id="path5577-5"
       style="font-size:medium;font-style:normal;font-variant:normal;font-weight:normal;font-stretch:normal;text-indent:0;text-align:start;text-decoration:none;line-height:normal;letter-spacing:normal;word-spacing:normal;text-transform:none;direction:ltr;block-progression:tb;writing-mode:lr-tb;text-anchor:start;color:#000000;fill:url(#linearGradient4019);fill-opacity:1;stroke:none;stroke-width:2.03124976;marker:none;visibility:visible;display:inline;overflow:visible;enable-background:accumulate;font-family:Andale Mono;-inkscape-font-specification:Andale Mono" />
  </g>
</svg>

<svg xmlns="http://www.w3.org/2000/svg" xmlns:xlink="http://www.w3.org/1999/xlink" viewBox="0 0 16 16"><defs><linearGradient x1="6.005" y1="12.517" x2="14.609" y2="12.517" id="l" xlink:href="#a" gradientUnits="userSpaceOnUse" gradientTransform="matrix(.69402 0 0 .6253 -.168 .598)" spreadMethod="reflect"/><linearGradient id="a"><stop offset="0" stop-color="#fff"/><stop offset="1" stop-color="#fff" stop-opacity=".235"/></linearGradient><linearGradient x1="14.609" y1="10.208" x2="5.991" y2="10.208" id="k" xlink:href="#b" gradientUnits="userSpaceOnUse" gradientTransform="matrix(.69402 0 0 .6253 -.168 .598)" spreadMethod="reflect"/><linearGradient id="b"><stop offset="0" stop-color="#185f9a"/><stop offset="1" stop-color="#599ec9"/></linearGradient><linearGradient x1="14.609" y1="10.208" x2="5.991" y2="10.208" id="j" xlink:href="#c" gradientUnits="userSpaceOnUse" gradientTransform="matrix(.69402 0 0 .6253 -.168 .598)" spreadMethod="reflect"/><linearGradient id="c"><stop offset="0" stop-color="#185f9a"/><stop offset="1" stop-color="#599ec9"/></linearGradient><linearGradient x1="23.571" y1="7.991" x2="23.571" y2="37.999" id="i" xlink:href="#d" gradientUnits="userSpaceOnUse" gradientTransform="matrix(.3333 0 0 .33325 0 .337)"/><linearGradient id="d"><stop offset="0" stop-color="#fff"/><stop offset=".131" stop-color="#fff" stop-opacity=".235"/><stop offset=".902" stop-color="#fff" stop-opacity=".157"/><stop offset="1" stop-color="#fff" stop-opacity=".392"/></linearGradient><linearGradient id="e"><stop offset="0" stop-color="#90dbec"/><stop offset=".262" stop-color="#55c1ec"/><stop offset=".705" stop-color="#3689e6"/><stop offset="1" stop-color="#2b63a0"/></linearGradient><linearGradient id="f"><stop offset="0" stop-color="#185f9a"/><stop offset="1" stop-color="#599ec9"/></linearGradient><linearGradient x1=".365" y1="19.599" x2="28.06" y2="19.599" id="g" xlink:href="#e" gradientUnits="userSpaceOnUse" gradientTransform="matrix(.44206 0 0 .44502 -2.404 -.387)" spreadMethod="reflect"/><linearGradient x1="30" y1="30" x2="-11" y2="30" id="h" xlink:href="#f" gradientUnits="userSpaceOnUse" gradientTransform="matrix(.3333 0 0 .33325 0 .337)" spreadMethod="reflect"/></defs><path d="M.5 3.594c-.012-.524 2.24-1.17 4.545-1.087 2.306.083 2.922.886 5.536.996 2.42.102 4.94-1.067 4.92-.532v10.34c.02.71-2.28 1.2-4.89 1.19-2.61 0-3.1-.95-5.56-1-2.46-.04-4.602 1.32-4.54.33V3.6z" fill="url(#g)" fill-rule="evenodd" stroke="url(#h)" stroke-linejoin="round"/><path d="M5.188 3.47a11.615 11.615 0 0 0-2.844.25c-.382.08-.7.172-.875.25v9.155c.15-.034.25-.056.5-.125.79-.226 1.95-.56 3.25-.53 1.26.026 2.1.336 2.81.592.71.257 1.31.465 2.47.47a17.59 17.59 0 0 0 3.15-.282c.39-.072.682-.152.872-.22V3.97c-.194.043-.35.064-.625.124-.88.192-2.126.422-3.47.375-1.31-.05-2.17-.31-2.905-.54-.73-.23-1.32-.426-2.342-.47z" opacity=".4" fill="none" stroke="url(#i)"/><path d="M7.72 3.03c-.71.098-1.29.493-1.876.845-.035-.017-.086-.015-.125-.03-.07-.03-.13-.108-.19-.126v.03c-.45-.14-1.02-.23-1.6.06a1.973 1.973 0 0 0-.376.25c-1.174.97-1.343 2.23-1.47 2.78a1.973 1.973 0 0 0 0 .15A5.66 5.66 0 0 0 2.28 9.4h-.03c.005.026.022.04.03.064a6.62 6.62 0 0 0 1.156 2.186 1.973 1.973 0 0 0 .156.157c.485.505 1.166 1.174 2.22 1.563.043.02.11.044.155.064.543.23 1.27.36 2.154.25.04.02.09-.02.13 0 .418.19.83.18 1.25.124v.126c.12-.007.25-.082.375-.094.03-.01.065.01.097 0v-.03c.74-.085 1.49-.19 2.25-.627a1.973 1.973 0 0 0 .06-.03 5.713 5.713 0 0 0 2.126-2.345 1.973 1.973 0 0 0 .03-.093c.34-.795.474-1.597.534-2.283a1.973 1.973 0 0 0 0-.062c.044-.97-.19-1.85-.5-2.594a1.973 1.973 0 0 0-.097-.186c.038.065-.04-.146-.28-.5-.242-.354-.87-.985-1.72-1.094a1.973 1.973 0 0 0-1.03.156c-.094-.073-.146-.15-.25-.218-.01-.008-.02-.024-.032-.032-.793-.524-1.803-.903-3-.844-.022.002-.04-.032-.06-.03a1.973 1.973 0 0 0-.096 0 1.973 1.973 0 0 0-.187 0zm.155 5.064l-.156.22c0-.055.05-.098.06-.158l.09-.062z" style="text-indent:0;text-align:start;line-height:normal;text-transform:none;block-progression:tb;-inkscape-font-specification:Andale Mono" font-weight="400" opacity=".2" color="#000" fill="url(#j)" overflow="visible" font-family="Andale Mono"/><path d="M7.875 4.063A4.125 4.125 0 0 0 5.78 5c-.042.036-.05.087-.093.125-.08-.08-.124-.163-.218-.22l.06-.093c-.03-.018-.12.02-.16 0-.04-.018-.05-.082-.098-.093l-.03.09c-.248-.1-.505-.23-.845-.07a.948.948 0 0 0-.187.125c-.827.69-.995 1.62-1.125 2.19a.948.948 0 0 0 0 .092 4.538 4.538 0 0 0 .156 1.97c.004.007-.002.02 0 .03.21.714.58 1.34 1 1.874a.948.948 0 0 0 .064.065c.45.47 1.08 1.01 1.904 1.312v.03c.014.01.044-.006.06.002.016.004.016.025.03.03v-.03c.533.224 1.19.442 1.97.25a.948.948 0 0 0 .22-.064c.046.035.044.13.093.156.275.14.56.11.844.062v.06c.04 0 .083-.027.124-.03.034-.01.065.01.096 0v-.03c.694-.06 1.4-.183 2.063-.564a.948.948 0 0 0 .03 0 4.7 4.7 0 0 0 1.72-1.935.948.948 0 0 0 .03-.03c.28-.66.382-1.314.44-1.94a.948.948 0 0 0 0-.06c.035-.77-.138-1.485-.41-2.125a.948.948 0 0 0-.06-.096c-.013-.027-.06-.21-.22-.44-.156-.23-.512-.56-1-.625a.948.948 0 0 0-.56.093.948.948 0 0 0-.06.03.948.948 0 0 0-.158.158l-.033.033v.03c-.055.048-.104.1-.154.157-.222-.26-.42-.533-.75-.75-.66-.44-1.525-.77-2.465-.713-.02.002-.04 0-.06 0a.948.948 0 0 0-.03 0 .948.948 0 0 0-.095 0z" style="text-indent:0;text-align:start;line-height:normal;text-transform:none;block-progression:tb;-inkscape-font-specification:Andale Mono" font-weight="400" opacity=".6" color="#000" fill="url(#k)" overflow="visible" font-family="Andale Mono"/><path d="M8.008 5.014a3.23 3.23 0 0 0-1.62.72c-.413.34-.7.797-.874 1.273-.146.518-.212 1.087.027 1.59a3.7 3.7 0 0 0 .61.99c.007.126-.184.16-.17.293.19-.142.54-.08.63.137.615.418 1.36.666 2.12.784.65.05 1.336-.06 1.89-.39.57-.32.88-.91.978-1.5.12-.57-.007-1.17-.275-1.7-.322-.61-.705-1.23-1.326-1.63-.55-.364-1.24-.623-1.93-.562l-.05.005zm-3.21.586c-.51.423-.625 1.093-.76 1.68a3.63 3.63 0 0 0 .12 1.597c.16.566.46 1.094.836 1.57.442.46.942.89 1.59 1.102.446.19.973.36 1.468.24.24-.23-.03-.56-.326-.59a4.26 4.26 0 0 1-1.68-.7c-.48-.386-.882-.878-1.117-1.42a3.426 3.426 0 0 1-.22-1.69c.04-.47.22-.904.47-1.31.08-.168.08-.406-.153-.47a.25.25 0 0 0-.24-.02zm3.514.06c.61.048 1.22.257 1.626.683.285.4.682.753.803 1.23l-1.1-1.17.2.8c-.426-.438-.933-1-1.662-.882-.54.08-1.054.39-1.242.87-.032.3-.34.45-.606.57.384.07.545.42.63.723-.134-.134-.198.116-.24.195l-.217.35a2.222 2.222 0 0 1-.4-1.564 2.272 2.272 0 0 1 1.04-1.47c.34-.21.753-.362 1.173-.33zm3.774.33c-.4.186-.212.66-.065.94.22.56.39 1.154.31 1.75a3.057 3.057 0 0 1-.48 1.454c-.33.406-.7.837-1.23 1.036-.513.288-1.143.18-1.695.34-.107 0-.014.133-.04.187-.004.24.264.355.496.28.663-.037 1.326-.177 1.89-.5a3.744 3.744 0 0 0 1.364-1.532c.224-.533.32-1.1.37-1.668.03-.585-.122-1.164-.352-1.707-.12-.214-.213-.56-.514-.598l-.043.02zm-3.536.96c.41.11.776.436.78.84.118.24.35.534.118.785-.276.47-1.022.435-1.415.108a.68.68 0 0 1-.263-.21c.25.084.192-.24.195-.37V7.75h-.5c.14-.423.52-.928 1.085-.8zm2.32 1.073c.124.51.1 1.104-.28 1.525v-.782l-.348-.352c.166-.203.43-.312.607-.508l.02.113zM8.074 9.41c.328.116.67.172 1.02.138l.867.508c-.61.14-1.27.233-1.87 0-.39-.128-.73-.34-1.07-.548.21-.186.598-.32.87-.197l.11.06.083.05z" style="text-indent:0;text-align:start;line-height:normal;text-transform:none;block-progression:tb;-inkscape-font-specification:Andale Mono" font-weight="400" color="#000" fill="url(#l)" overflow="visible" font-family="Andale Mono"/></svg>
